X: 4
M:C|
L:1/8
K:D
vD3E FEFA|BABd e2f2|dcBA GBF"4"A|G2E2 EGFE|
|:(ude)|vf2f2 gfed|cd"4"ec A2 (Bc)|d2B2 Bcde|f2B2B2d2|


